X:1
T:Title
L:1/8
Q:1/4=140
M:6/8
K:Ab
V:1 treble nm="Grand Piano"
V:1
 A3 G3 | F3 C3- | C2 A G2 F | G2 G G3 | B3 A3 | G3 C3- | C2 C =E2 G | F2 F F3 | c3 B3 | =A3 F3- | %10
w: ????~????~???? *||||||||||
 F2 F =A2 c | d2 d d3 | d2 d c2 _c | c3 A2 G | F6 | z2 B B2 c | d3 c2 _c | c3 A3 | F3 c2 c | %19
w: |||||||||
 B3 A3 | G6- | G2 C =E2 G | B3 c3 | d6 | e3 d2 d | c6 | c3/2B3/2 A3/2G3/2 | F6 |] %28
w: |||||||||

